X: 3426
M: 3/4
L: 1/4
K: C
e3- | edc | d3- | dGB |\
d3- | dcB | c3- | cGc |\
e3- | ede | g3- | gfe |\
d3- | dcB | c3- | cz :|
|: c |\
cBA | AG^F | (G2e) | czc |\
cBA | AG^F | (G2e) | cze |\
edc | cBA | fed | fed |\
cBA | (Ge)>d | c3- | cz :|


